src/2-landmarks/elevator.svg

<svg width="1300" height="1000" fill="none" xmlns="http://www.w3.org/2000/svg"><path fill-rule="evenodd" clip-rule="evenodd" d="M1244 900h56v100H0V900h744V120c0-11.046 8.954-20 20-20h460c11.05 0 20 8.954 20 20v780ZM751 122v778h240V107H766c-8.284 0-15 6.716-15 15Zm247 778h239V122c0-8.284-6.72-15-15-15H998v793Z" fill="#000"/><path d="M701.406 514.573a2.14 2.14 0 0 0-.032-3.088l-10.201-9.578a3 3 0 0 0-4.083-.022l-10.447 9.596a2.141 2.141 0 0 0 2.872 3.176l9.602-8.545 9.354 8.514a2.14 2.14 0 0 0 2.935-.053Zm-.032 14.942a2.14 2.14 0 0 0-2.903-3.141l-9.354 8.514-9.602-8.545a2.14 2.14 0 0 0-2.872 3.176l10.447 9.596a3 3 0 0 0 4.083-.022l10.201-9.578Z" fill="#000"/><path fill-rule="evenodd" clip-rule="evenodd" d="M667 480a3 3 0 0 0-3 3v74a3 3 0 0 0 3 3h44a3 3 0 0 0 3-3v-74a3 3 0 0 0-3-3h-44Zm40 7h-36v66h36v-66Z" fill="#000"/></svg>

<svg width="1300" height="1000" viewBox="0 0 1300 1000" fill="none" xmlns="http://www.w3.org/2000/svg">
<path fill-rule="evenodd" clip-rule="evenodd" d="M1244 900H1300V1000H0V900H744V120C744 108.954 752.954 100 764 100H1224C1235.05 100 1244 108.954 1244 120V900ZM751 122V900L991 900V107H766C757.716 107 751 113.716 751 122ZM998 900L1237 900V122C1237 113.716 1230.28 107 1222 107H998V900Z" fill="black"/>
<path d="M701.406 514.573C702.275 513.722 702.26 512.318 701.374 511.485L691.173 501.907C690.027 500.832 688.247 500.822 687.09 501.885L676.643 511.481C675.747 512.305 675.717 513.709 676.577 514.57C677.379 515.373 678.667 515.411 679.515 514.657L689.117 506.112L698.471 514.626C699.308 515.388 700.596 515.365 701.406 514.573Z" fill="black"/>
<path d="M701.374 529.515C702.26 528.682 702.275 527.278 701.406 526.427C700.596 525.635 699.308 525.612 698.471 526.374L689.117 534.888L679.515 526.343C678.667 525.589 677.379 525.627 676.577 526.43C675.717 527.291 675.747 528.695 676.643 529.519L687.09 539.115C688.247 540.178 690.027 540.168 691.173 539.093L701.374 529.515Z" fill="black"/>
<path fill-rule="evenodd" clip-rule="evenodd" d="M667 480C665.343 480 664 481.343 664 483V557C664 558.657 665.343 560 667 560H711C712.657 560 714 558.657 714 557V483C714 481.343 712.657 480 711 480H667ZM707 487H671V553H707V487Z" fill="black"/>
</svg>
